!!!COM: Bach, Johann Sebastian
!!!CDT: 1685/3//-1750/7/28/
!!!OTL@@DE: Nun ruhen alle Waelder
!!!OTL@EN:  Now rests all the forest
!!!AGN: 4-Part Chorale
!!!SCT: BH 117
!!!SCT: BWV 244
**harm	**root	**kern	**kern	**kern	**kern
!	!	!bass	!tenor	!alto	!soprno
*	*Iorgan	*Iorgan	*Iorgan	*Iorgan	*Iorgan
*M4/4	*M4/4	*M4/4	*M4/4	*M4/4	*M4/4
*met(c)	*met(c)	*met(c)	*met(c)	*met(c)	*met(c)
*MM60	*MM60	*MM60	*MM60	*MM60	*MM60
*k[b-]	*k[b-]	*k[b-]	*k[b-]	*k[b-]	*k[b-]
*F:	*F:	*F:	*F:	*F:	*F:
I	4AA-	4F	4c	4f	4a
=1	=1	=1	=1	=1	=1
IV	4DD-	8B-	4B-	4d	4f
.	.	8A	.	.	.
viiob	4GG	4G	4B-	4e	4g
I	4AA-	4.F	8c	8f	8a
.	.	.	8B-	8g	8b-
I	4AA-	.	8A	4a	4cc
.	.	8E	8G	.	.
=2	=2	=2	=2	=2	=2
IV7b	4DD-	4D	4F	4a	2b-
V7b	4EE-	4E	4c	4g	.
I;	4AA-;	4F;	4c;	4f;	4a;
vi	4FF	4D	4d	4f	8a
.	.	.	.	.	8b-
=3	=3	=3	=3	=3	=3
Ib	4AA-	8AA	4c	8f	4cc
.	.	8GG	.	8e	.
Ib	4AA-	8AA	4c	8f	4cc
.	.	8BB-	.	8d	.
V	4EE-	8C	4c	8e	4g
.	.	8BB-	.	8d	.
iii	4CC	4AA	4E	4c	4a
=4	=4	=4	=4	=4	=4
viib/V	2DD	2D	8F	4c	2f
.	.	.	8E	.	.
.	.	.	4F	4B	.
V;	4EE-;	4C;	4G;	4c;	4e;
V7d	4EE-	4BB-y	8E	4G	4c
.	.	.	8D	.	.
=5	=5	=5	=5	=5	=5
Ib	4AA-	4AA	4C	4c	4f
ii	4BB-	4GG	8D	4B-	4g
.	.	.	8E	.	.
I	4AA-	8FF	4F	8A	4a
.	.	8GG	.	8B-	.
Ib	4AA-	8AA	4F	4c	4a
.	.	8BB-	.	.	.
=6	=6	=6	=6	=6	=6
V;	2.EE-;	2.C;	2.E;	2.c;	2.g;
Vb/vi	4CC	4C#	4A	4e	4a
!!linebreak: 2
=7	=7	=7	=7	=7	=7
vi	4FF	4D	8A	4d	4f
.	.	.	8B-	.	.
Vb	4EE-	4E	8A	4c	4g
.	.	.	8G	.	.
I	4AA-	4F	8F	4c	8a
.	.	.	8G	.	8b-
V7b/II	4FF	4F#	4A	4d	4cc
=8	=8	=8	=8	=8	=8
ii	2BB-	4G	8G	8d	2b-
.	.	.	8A	8c	.
.	.	4GG	8B-	8d	.
.	.	.	8c	8e	.
VI;	4FF;	4D;	4d;	4f#;	4a;
vi	4FF	4D	4d	4f	8a
.	.	.	.	.	8b-
=9	=9	=9	=9	=9	=9
Vb	4EE-	4E	8c	4g	4cc
.	.	.	8B-	.	.
I	4AA-	4F	4A	8f	4cc
.	.	.	.	8e	.
V7d/V	4BB-	8F	4B	4d	4g
.	.	8E	.	.	.
III	4CC	8D	4E	4e	4a
.	.	8C#	.	.	.
=10	=10	=10	=10	=10	=10
vi	4FF	8D	2A	4e	2f
.	.	8E	.	.	.
vib	4FF	8F	.	4d	.
.	.	8G	.	.	.
III;	4CC;	4A;	4A;	4c#;	4e;
iii	4CC	4AA	4A	4c	4c
=11	=11	=11	=11	=11	=11
vi7	8FF	4D	8A	8c	4f
IVc	8DD-	.	8B-	8d	.
iii7c	8CC	4E	8A	8c	4g
viio	8GG	.	8G	8B-	.
I	4AA-	8F	4F	8A	4a
.	.	8E	.	8c	.
IVb	4DD-	8D	4F	8d	4b-
.	.	8C	.	8e	.
=12	=12	=12	=12	=12	=12
IV7	4DD-	4BB-	4d	4f	4a
V	4EE-	4C	8G	4e	4g
.	.	.	16A	.	.
.	.	.	16B-	.	.
I;	4AA-;	4FF;	4A;	4c;	4f;
==	==	==	==	==	==
*-	*-	*-	*-	*-	*-
!!chor2scor: -l 2 -s 0.6 -o %b.pmx
!!!YEC: Copyright 1994, David Huron
!!!YEC: Changes/Additions 2001 by Craig Stuart Sapp
!!!YEN: United States of America
!!!SMA: 371 Bach Chorales, edited by Ludwig Erk, C.F. Peters
!!!PDT: 1850, 1865
!!!ONB: Harmony and Root analysis done manually
